**kern	**kern	**dynam
*part1	*part1	*part1
*staff2	*staff1	*
*I"Piano	*	*
*clefF4	*clefG2	*
*k[]	*k[]	*
=1	=1	=1
4EE	4e	.
4r	4r	.
4r	4ee	.
=	=	=
4AA	4cc 4ee 4aa	mf >
4r	4b 4dd 4gg	.
4r	4a 4cc 4ff	.
=	=	=
[2E	2g#X 2b 2ee	]
(8EL]	4r	.
24DL	.	.
24C	.	.
24BBJJ	.	.
=	=	=
4AA)	4cc 4ee 4aa	mf >
4r	4b 4dd 4gg	.
4r	4a 4cc 4ff	.
=	=	=
[2E	2g#X 2b 2ee	]
(8EL]	4r	.
24DL	.	.
24C	.	.
24BBJJ	.	.
=	=	=
!	!LO:TX:b:i:t=dim.	!
4AA)	4cc 4ee 4aa	.
4r	4r	.
4E	4g#X 4b 4ee	.
=	=	=
4AA	4cc 4ee 4aa	.
4r	4r	.
4E	4g#X 4b 4ee	.
=	=	=
4AA	4cc 4ee 4aa	.
4r	4r	.
4E	4g#X 4b 4ee	.
=	=	=
*-	*-	*-
!!!system-decoration: {(s1,s2)}
